X: 1
T: Dermot Grogan's
M: 4/4
L: 1/8
R: reel
K: Ador
A2eA BAeA|G2DG EGDG|A2eA GABd|gedB GABG|
A2eA A2eA|GBdg egde|gedB GABd|1 e2dB A2AG:|2 e2dB A2Bd||
eaaf g2ag|eaaf g2fg|eaag a2ab|gedB GABd|
eaaf g2ag|eaaf g2fg|eaag bgaf|1 gedB A2Bd:|2 gedB A2AG||
